X: 507
T: Zao xikao
L: 1/16
M: 2/4
K: F
c2 c A f g f d [I:setbarnb 1]| 
c2> d2 A2 G2 | 
f g f d c d A G | 
F2 G A D2 C2 | 
G Ac4f d | 
c d A G F D F G | 
A G A c G A F D | 
C2> D2C4 |]

@@@ Tune index: 9381
